!!!COM: Scarlatti, Domenico
!!!CDT: 1685///-1757///
!!!OTL: Sonata in G Minor, K.60, L.13
!!!SCT: K. 060
!!!SCT: L. 013
**kern	**kern	**dynam
*staff2	*staff1	*staff1/2
*Icemba	*Icemba	*Icemba
*>[A,A,B,B]	*>[A,A,B,B]	*>[A,A,B,B]
*>norep[A,B]	*>norep[A,B]	*>norep[A,B]
*>A	*>A	*>A
*clefF4	*clefG2	*clefG2
*k[b-e-]	*k[b-e-]	*k[b-e-]
*g:	*g:	*g:
*M3/4	*M3/4	*M3/4
*MM126	*MM126	*MM126
=1-	=1-	=1-
2GG/	(4gg\	f
.	8g\L)	.
.	(8ff\	p
4G\	8ee-\	.
.	8cc\J	.
=2	=2	=2
4.F#\	8dd\L	.
.	8b-\	.
.	8cc\	.
8F#\	8a\	.
4G\	8b-\	.
.	8g\J	.
=3	=3	=3
4d\	8f#/L	.
.	8g/J	.
8D\L	4a/)	.
8c\	.	.
8B-\	([4d/	.
8G\J	.	.
=4	=4	=4
8A\L	8d/L]	.
8F#\	8a/ 8cc/J)	.
8G\	4.g/ (4.b-/	.
8C\	.	.
8D\	.	.
8DD\J	8f#/ 8a/	.
=5	=5	=5
4.GG/	8b-'\L)	.
.	8g'\J	.
.	(4.ee-\	.
8G\L	.	.
8A\	.	.
8Fn\J	8fn/	.
=6	=6	=6
4B-\	8dd'\L)	<
.	8b-'\J	.
8r	(4.ff\	.
8A'\L	.	.
8Bn\	.	.
8G\J	8g/	.
=7	=7	=7
4c\	8ee-'\L)	.
.	8cc'\J	.
8r	(4.gg\	.
8Bn\L	.	.
8c#\	.	.
8A\J	8a/	.
=8	=8	=8
4.d\	8ff'\L)	f
.	8dd'\J	.
.	(4.aa\	.
8cn\	.	.
4B-\	.	.
.	8dd\	.
=9	=9	=9
4A\	8cc#\L	.
.	8dd\J	.
8AA\L	4een\)	mf
8G\	.	.
8F\	([4a/	.
8D\J	.	.
=10	=10	=10
8En\L	8a\L]	.
8C#\	8een'\ 8gg'\J)	p
8D\	4.dd\ (4.ff\	.
8G\	.	.
8A\	.	.
8AA\J	8cc#\ 8ee\	.
=11	=11	=11
8D\L	4.dd\ 4.ff\)	.
8d\	.	.
8Bn\	.	.
8G\	8dd\ 8ff\	mf
8c\	4cc\ (4ee-\	>
8C\J	.	.
=12	=12	=12
4G\	8bn/ 8dd/L)	.
.	(8g/	p
4F\	8a-/	.
.	8f/	.
4BBn/	8dd/	.
.	8g/J	.
=13	=13	=13
*	*^	*
8C\L	2r	4.cc\ 4.ee-\)	.
8c\	.	.	.
8A\	.	.	.
8F\J	.	8cc'\ 8ee-'\	mf
4B-'\	(4dd/	8b-\L	>
.	.	8g\J	.
=14	=14	=14	=14
4F#\	4cc/	8a\L	p
.	.	8d\J	.
4G\	4b-/	8g\L	.
.	.	8d\J	.
4C#/	4a/	8g\L	.
.	.	8en\J	.
*	*v	*v	*
=15	=15	=15
4D\	8f#/L	.
.	8g/J	.
8DD/L	4a/)	.
8Cn/	.	.
8BB-/	([4d/	.
8GG/J	.	.
=16	=16	=16
*	*^	*
8AA/L	8d/L]	4r	.
8F#/	8a/ 8cc/J)	.	.
8GG/	4b-/	(4.g\	.
8G/J	.	.	.
4C/	4ee-/	.	.
.	.	16a\LL	.
.	.	16g\JJ	.
=17	=17	=17	=17
4D/	4dd/	8f#\L	.
.	.	8g\J	.
8DD/L	4r	4a\)	<
8C/	.	.	.
8BB-/	([4d/	4r	.
8GG/J	.	.	.
=18	=18	=18	=18
8C\L	8d/L]	4r	.
8F#\	8a/ 8cc/J)	.	.
8BB-\	(4b-/	4.g\	.
8G\J	.	.	.
4C/	4ee-/	.	.
.	.	16a\LL	.
.	.	16g\JJ	.
=19	=19	=19	=19
4D\	4dd/)	8f#\L	.
.	.	8g\J	.
8DD/L	4r	4a\	.
8C/	.	.	.
8BB-/	8r	(4d\	mf
8G/J	[8dd/	.	.
*	*v	*v	*
=20	=20	=20
8AA/L	8dd\L]	.
8F#/J	8cc\J	.
4GG/ 4G/	4b-\)	.
4C#\ 4G\	(8.b-/L	.
.	32a/LL	.
.	32b-/JJJ	.
=21	=21	=21
*	*^	*
4DD/ 4D/	8a/L	2r	.
.	16g/L	.	.
.	16a/JJ	.	.
4r	8b-/L)	.	.
.	(8f#/J	.	.
4r	4b-/	8g\L	.
.	.	8en\J)	.
=22	=22	=22	=22
4DD/ 4D/	(4aa/	8ff#\L	f
.	.	8dd\J	.
4r	4gg/	8ee-\L	.
.	.	8cc\J	.
4r	4ff#/	8dd\L	.
.	.	8a\J	.
=23	=23	=23	=23
4DD/ 4D/	4gg/	8b-\L	.
.	.	8g\J	.
4DD/ 4D/	4ff#/	8cc\L	.
.	.	8a\J	.
4DD/ 4D/	4gg/	8b-\L	.
.	.	8g\J	.
*	*v	*v	*
=24	=24	=24
4.DD/ (4.D/	4a'\ 4dd'\ 4ff#'\ 4aa'\)	f
.	4a'\ 4dd'\ 4ff#'\ 4aa'\	>
8C/L	.	.
8BB-/	4r	.
8AA/J)	.	.
=25:|!|:	=25:|!|:	=25:|!|:
2BB-/	(4bb-\	f
.	8b-\L)	.
.	(8aa\	p
4B-\	8gg\	.
.	8ee-\J	.
=26	=26	=26
4.A\	8ff\L	.
.	8dd\	.
.	8ee-\	.
8A\	8cc\	.
4B-\	8dd\	.
.	8b-\J	.
=27	=27	=27
4f\	8a/L	.
.	8b-/J	.
8F\L	4cc/)	.
8e-\	.	.
8d\	([4f/	.
8B-\J	.	.
=28	=28	=28
8c\L	8f\L]	.
8A\	8cc\ 8ee-\J)	.
8B-\	4.b-\ (4.dd\	.
8E-\	.	.
8F\	.	.
8FF\J	8a\ 8cc\	.
=29	=29	=29
*	*^	*
4.BB-/	8dd/L	4.b-\	<
.	8een/J	.	.
.	4.ff/	.	.
(8A-\	.	8cc\	>
4G\ 4B-\	.	4b-\	.
.	8ee/)	.	.
*	*v	*v	*
=30	=30	=30
4A-\ 4c\	8ff\L	.
.	8cc\J	.
4B-\	8dd-\L	.
.	8b-\J	.
4En\ 4c\	8cc\L	.
.	8g\J	.
=31	=31	=31
4F\) 4c\	8.a-/L	.
.	16g/Jk	.
8r	4f/	.
(8f\L	.	.
8e-\	4cc\	.
8c\J	.	.
=32	=32	=32
8d\L	8cc\L	.
8Bn\	8dd'\ 8ff'\J	.
8c\	4.cc\ 4.ee-\	f
8F\	.	.
8G\	.	.
8GG\J	8bn\ 8dd\	.
=33	=33	=33
8C\L)	4cc\ 4ee-\	p
(8A-\	.	.
8BB-\	4dd\	.
8G\	.	.
8AA-\	4cc\	.
8F\J	.	.
=34	=34	=34
*	*^	*
4GG/)	2r	8dd\L	.
.	.	16cc\L	.
.	.	16dd\JJ	.
4r	.	8ee-\L	<
.	.	8bn\J	.
4r	4ee-/	8cc\L	mf
.	.	8a\J	.
=35	=35	=35	=35
4GG/	4dd/	8bn\L	>
.	.	8g\J	.
4r	4cc/	8a-\L	.
.	.	8f\J	.
4r	4b/	8g\L	.
.	.	8d\J	.
=36	=36	=36	=36
4GG/	4cc/	8e-\L	.
.	.	8c\J	.
4GG/	4bn/	8f\L	.
.	.	8d\J	.
4GG/	4cc/	8e-\L	.
.	.	8c\J	.
*	*v	*v	*
=37	=37	=37
4.GG/	4d'/ 4g'/ 4bn'/ 4dd'/	mf
.	4d'/ 4g'/ 4b'/ 4dd'/	.
8F\L	.	.
8E-\	(4gg\	f
8c\J	.	.
=38	=38	=38
8D\L	4ff\	.
8Bn\J	.	.
8C\L	4ee-\	.
8A\J	.	.
8BB-\L	4dd\	>
8G\J	.	.
=39	=39	=39
8AA\L	4cc\	mf
8F#\J	.	.
8BB-\L	4dd\	.
8G\J	.	.
8AA\L	4cc\	.
8F#\J	.	.
=40	=40	=40
*	*^	*
4GG/	2r	8b-\L	.
.	.	16a\L	.
.	.	16b-\JJ	.
4C/	.	8cc\L)	.
.	.	(8b-\	.
4C\ [4c\	4ee-/	8a\	.
.	.	8g\J	.
=41	=41	=41	=41
8c\L]	4dd/	8f#\L	.
8B-\	.	8g\	.
8A\	2r	8a\	.
8G\	.	8b-\J	.
8F#\	.	[4cc\)	.
8En\J	.	.	.
=42	=42	=42	=42
4DD/	(8cc/L]	4d\	.
.	8b-/	.	.
4DD/	8a/	4r	.
.	8g/J	.	.
4DD/	4cc#/	8f#\L	.
.	.	8en\J	.
=43	=43	=43	=43
4DD/	2dd/	8d\L	.
.	.	16f#\L	.
.	.	16g\JJ	.
8r	.	4a\)	.
8D\L	.	.	.
8E-\	4r	([4g\	.
8C\J	.	.	.
*	*v	*v	*
=44	=44	=44
4DD/	8g/L]	<
.	16f#/L	.
.	16g/JJ	.
8r	4a/)	.
8D\L	.	.
8G\	([4g/	.
8GG\J	.	.
=45	=45	=45
4DD/	8g/L]	.
.	16a/L	.
.	16b-/JJ	.
8r	4f#/ 4a/ 4cc/)	.
(8D\L	.	.
8G\	4d/ 4g/ 4b-/	.
8GG\J	.	.
=46	=46	=46
4DD/)	8r	.
.	16a/LL	.
.	16b-/JJ	.
8r	4f#/ 4a/ 4cc/	.
(8D\L	.	.
8G\	4d/ 4g/ 4b-/	.
8GG\J	.	.
=47	=47	=47
*	*^	*
4C/	8r	4cc\ 4ee-\	f
.	4aa/	.	.
4D/	.	4b-\ 4dd\	.
.	4gg/	.	.
4DD/	.	4a\ 4cc\	.
.	8ff#/	.	.
=48	=48	=48	=48
4GG/)	[2gg/	8b-\L	.
.	.	16a\L	p
.	.	16b-\JJ	<
4r	.	8cc\L	.
.	.	8dd\	.
4r	8gg/L]	8een\	.
.	8aa'/J	8ff#\J	.
=49	=49	=49	=49
4GG/	(8b-/L	[2g\	p
.	16a/L	.	.
.	16b-/JJ	.	.
4r	8cc/L	.	<
.	8dd/	.	.
4r	8een/	8g\L]	.
.	8ff#/J	8a\J	.
=50	=50	=50	=50
(8GG/L	2.gg/)	4b-\	mf
16AA/L	.	.	.
16BB-/JJ	.	.	.
8C/L	.	4g\	.
8D/	.	.	.
8En/	.	[4cc\	.
8F#/J	.	.	.
*	*v	*v	*
=51	=51	=51
8G\L	8cc\L]	.
8A\	16b-\L	.
.	16cc\JJ	.
8B-\	8dd\	.
8c\	4g/	.
8d\)	.	.
(8D\J	8f#/	.
=52	=52	=52
4GG/)	8r	.
.	8gg\L	f
4GG/	8dd\	.
.	8b-\	.
4GG/	8g\	.
.	8ff#\J	.
=53	=53	=53
4GG/	4g'\ 4b-'\ 4dd'\ 4gg'\	.
4r	4g'\ 4b-'\ 4dd'\ 4gg'\	.
4r	4r	.
==:|!	==:|!	==:|!
*-	*-	*-
!!!ENC: Kelly Leistikow
!!!END: 2005/08/07/
!!!ONB: Translated to Humdrum by Craig Stuart Sapp 2005/08/07
